X:1
T:Ağasarın Balını
T:Oy Asiye Asiye
T:Ağasarın Balını
T:Notasyon: Musa Çetiner
T:www.kolaynota.com
Z:Notasyon: Musa Çetiner
Z:www.kolaynota.com
L:1/8
Q:1/4=90
M:5/8
K:C
V:1 treble-8 nm="Klasik Gitar" snm="Git."
V:1
"^Sol♯" ^G"^La"A"^Si" B"^Si" B2 |"^Si" B"^Do"c"^Re" d"^Do" c2 |"^Si" B"^La"A"^Si" B"^La" A2 | %3
w: A ğa sa rın|ba lı nı da|Gel sa lı nı|
"^La" A"^Sol♯"^G/"^La"A/"^Sol♯" G2 z :|"^Si" B"^Do"c"^Si" B"^La" A2 |"^La" A"^Sol♯"^G"^Sol♯" G2 z | %6
w: sa lı _ nı|A dam ce bin|de ta şır|
"^Si" B"^Do"c"^Si" B"^La" A2 |"^La" A"^Sol♯"^G"^Sol♯" G2 z |:"^Si" B"^Do"c"^Re" d"^Do" c2 | %9
w: Se nin gi bi|ge li ni|A dam ce bin|
"^Si" B"^La"A"^Si" B"^La" A2 |"^Sol♯" ^G"^Fa"F"^Sol♯" G"^Fa" F2 |"^Mi" E"^Re"D"^Si" B"^La" A2 | %12
w: de ta şır da|Se nin gi bi|ge _ li ni|
"^Sol♯" ^G"^Fa"F"^Sol♯" G"^Fa" F2 |"^Fa" F"^Mi"E"^Mi" E3 |"^Mi" E2"^Mi" E"^Mi" E2 | %15
w: O ğol na zı|mım o ğol||
"^Mi" E2"^Mi" E3 ::"^Si" B"^Do"c"^Si" B"^La" A2 |"^La" A"^Sol♯"^G/"^La"A/"^Sol♯" G2 z | %18
w: |Oy a si ye|a si _ ye|
"^Si" B"^Do"c"^Si" B"^La" A2 |"^La" A"^Sol♯"^G/"^La"A/"^Sol♯" G2 z ::"^Si" B"^Do"c"^Re" d"^Do" c2 | %21
w: Tü tün koy dum|ke si _ ye|A nan se ni|
"^Si" B"^La"A"^Si" B"^La" A2 |"^Sol♯" ^G"^Fa"F"^Sol♯" G"^Fa" F2 |"^Mi" E"^Re"D"^Si" B"^La" A2 | %24
w: ve re cek da|Bir ba ğa pi|ra _ si ya|
"^Sol♯" ^G"^Fa"F"^Sol♯" G"^Fa" F2 |"^Fa" F"^Mi"E"^Mi" E3 |"^Mi" E2"^Mi" E"^Mi" E2 | %27
w: O ğol na zı|mım o ğol||
"^Mi" E2"^Mi" E3 :| %28
w: |

